docs/svgs/room-toilet.svg

<svg viewBox="0 0 24 24" height="24px" width="24px" fill="#44739e" xmlns="http://www.w3.org/2000/svg"><title>hue:room-toilet</title><desc>Source: https://github.com/arallsopp/hass-hue-icons</desc><path d="M 6.75 14.25 C 6.335938 14.25 6 13.914062 6 13.5 C 6 13.085938 6.335938 12.75 6.75 12.75 L 9.601562 12.75 C 7.910156 11.628906 6.75 9.367188 6.75 6.75 C 6.75 3.023438 9.101562 0 12 0 C 14.898438 0 17.25 3.023438 17.25 6.75 C 17.25 9.367188 16.089844 11.628906 14.398438 12.75 L 17.25 12.75 C 17.664062 12.75 18 13.085938 18 13.5 C 18 13.914062 17.664062 14.25 17.25 14.25 Z M 17.398438 15.75 C 17.730469 15.75 18 16.011719 18 16.332031 L 18 16.496094 C 18 18.960938 16.425781 20.859375 14.203125 21.710938 C 13.882812 21.835938 13.675781 22.132812 13.675781 22.464844 L 13.675781 23.1875 C 13.675781 23.636719 13.300781 24 12.835938 24 L 11.164062 24 C 10.699219 24 10.324219 23.636719 10.324219 23.1875 L 10.324219 22.453125 C 10.324219 22.121094 10.117188 21.824219 9.800781 21.699219 C 7.550781 20.808594 5.996094 18.8125 6 16.328125 C 6 16.007812 6.273438 15.75 6.601562 15.75 Z M 17.398438 15.75 "/></svg>

<svg viewBox="0 0 24 24" height="24px" width="24px" fill="#44739e" xmlns="http://www.w3.org/2000/svg"><title>hue:room-toilet</title><desc>Source: https://github.com/arallsopp/hass-hue-icons</desc><path d="M6.75,14.25C6.34,14.25,6,13.91,6,13.5s0.34-0.75,0.75-0.75H9.6c-1.69-1.12-2.85-3.38-2.85-6 C6.75,3.02,9.1,0,12,0s5.25,3.02,5.25,6.75c0,2.62-1.16,4.88-2.85,6h2.85c0.41,0,0.75,0.34,0.75,0.75s-0.34,0.75-0.75,0.75H6.75z M17.4,15.75c0.33,0,0.6,0.26,0.6,0.58v0.16c0,2.46-1.57,4.36-3.8,5.21c-0.32,0.12-0.53,0.42-0.53,0.75v0.72 c0,0.45-0.38,0.81-0.84,0.81h-1.67c-0.46,0-0.84-0.36-0.84-0.81v-0.73c0-0.33-0.21-0.63-0.52-0.75C7.55,20.81,6,18.81,6,16.33 c0-0.32,0.27-0.58,0.6-0.58H17.4z"/></svg>
